src/static/logos/xplenty.svg

<?xml version="1.0" encoding="UTF-8" standalone="no"?>
<svg width="256px" height="256px" viewBox="0 0 256 256" version="1.1" xmlns="http://www.w3.org/2000/svg" xmlns:xlink="http://www.w3.org/1999/xlink" preserveAspectRatio="xMidYMid">
	<g>
		<path d="M128,249.018182 C61.0909091,249.018182 6.98181818,194.909091 6.98181818,128 C6.98181818,61.0909091 61.0909091,6.98181818 128,6.98181818 C194.909091,6.98181818 249.018182,61.0909091 249.018182,128 C249.018182,194.909091 194.909091,249.018182 128,249.018182 L128,249.018182 Z" fill="#FFFFFF"></path>
		<path d="M128,14.5454545 C190.836364,14.5454545 241.454545,65.7454545 241.454545,128 C241.454545,190.254545 190.836364,241.454545 128,241.454545 C65.1636364,241.454545 14.5454545,190.836364 14.5454545,128 C14.5454545,65.1636364 65.1636364,14.5454545 128,14.5454545 L128,14.5454545 Z M128,0 C57.0181818,0 0,57.0181818 0,128 C0,198.981818 57.0181818,256 128,256 C198.981818,256 256,198.981818 256,128 C256,57.0181818 197.818182,0 128,0 L128,0 L128,0 Z" fill="#3F3F3F"></path>
		<path d="M74.4727273,119.272727 L97.7454545,137.890909 L129.745455,85.5272727 L170.472727,150.690909 L192.581818,133.236364 L217.018182,169.309091 C222.836364,156.509091 227.490909,141.381818 227.490909,126.836364 C227.490909,71.5636364 183.854545,27.9272727 128.581818,27.9272727 C73.3090909,27.9272727 27.9272727,72.7272727 27.9272727,126.836364 C27.9272727,144.290909 32.5818182,158.836364 39.5636364,173.381818 L74.4727273,119.272727 L74.4727273,119.272727 Z" fill="#0AB3E5"></path>
	</g>
</svg>

<svg width="256" height="256" xmlns="http://www.w3.org/2000/svg" preserveAspectRatio="xMidYMid"><path d="M128 249.018C61.09 249.018 6.982 194.91 6.982 128S61.09 6.982 128 6.982 249.018 61.091 249.018 128c0 66.91-54.109 121.018-121.018 121.018z" fill="#FFF"/><path d="M128 14.545c62.836 0 113.455 51.2 113.455 113.455 0 62.255-50.619 113.455-113.455 113.455S14.545 190.836 14.545 128 65.164 14.545 128 14.545zM128 0C57.018 0 0 57.018 0 128s57.018 128 128 128 128-57.018 128-128S197.818 0 128 0z" fill="#3F3F3F"/><path d="M74.473 119.273l23.272 18.618 32-52.364 40.728 65.164 22.109-17.455 24.436 36.073c5.818-12.8 10.473-27.927 10.473-42.473 0-55.272-43.636-98.909-98.91-98.909-55.272 0-100.654 44.8-100.654 98.91 0 17.454 4.655 32 11.637 46.545l34.909-54.11z" fill="#0AB3E5"/></svg>
